src/svg/registered.svg

<svg height="1000" width="1000.0" xmlns="http://www.w3.org/2000/svg">
    <path d="m557.3 405.2c0 36.4-19.2 55.6-55.5 55.6h-58.3v-109.7h45.6c56 0 68.2 17.1 68.2 54.1z m427.1 94.8c0 267.5-216.9 484.4-484.4 484.4s-484.4-216.9-484.4-484.4 216.9-484.4 484.4-484.4 484.4 216.9 484.4 484.4z m-274.6 203.9c-91.3-165.6-84.6-153.6-87.3-158.1 45.7-29.7 74.1-84 74.1-145.5 0-106-61.5-174.3-206.1-174.3h-138c-25.9 0-46.9 21-46.9 46.8v453.8c0 25.9 21 46.8 46.9 46.8h44.1c25.9 0 46.9-20.9 46.9-46.8v-140h49.9l86.2 162c7.9 14.8 23.4 24.8 41.4 24.8h47.7c35.7 0 58.3-38.2 41.1-69.5z" />
  </svg>

<svg height="1000" width="1000" xmlns="http://www.w3.org/2000/svg"><path d="M557.3 405.2c0 36.4 -19.2 55.6 -55.5 55.6h-58.3V351.1h45.6c56 0 68.2 17.1 68.2 54.1zM984.4 500c0 267.5 -216.9 484.4 -484.4 484.4S15.6 767.5 15.6 500 232.5 15.6 500 15.6 984.4 232.5 984.4 500zM709.8 703.9C618.5 538.3 625.2 550.3 622.5 545.8c45.7 -29.7 74.1 -84 74.1 -145.5C696.6 294.3 635.1 226 490.5 226h-138c-25.9 0 -46.9 21 -46.9 46.8v453.8c0 25.9 21 46.8 46.9 46.8h44.1c25.9 0 46.9 -20.9 46.9 -46.8v-140h49.9l86.2 162a46.9 -46.9 0 0 1 41.4 24.8h47.7c35.7 0 58.3 -38.2 41.1 -69.5z"/></svg>
